src/assets/img/providers/truelab.svg

<svg width="92" height="26" viewBox="0 0 92 26" fill="none" xmlns="http://www.w3.org/2000/svg">
<g clip-path="url(#clip0_4132_8419)">
<path fill-rule="evenodd" clip-rule="evenodd" d="M91.5 0.000976562H53.1466V1.48499H54.4568V19.0558H63.1519V15.4941H58.2683V1.48499H91.5V0.000976562ZM0.5 3.56262V7.18363H3.29909V21.9051H7.11061V7.18363H9.90973V3.56262H0.5ZM41.712 3.56262V21.9051H50.4071V18.3434H45.5236V14.5443H49.3947V10.9827H45.5236V7.18363H50.4071V3.56262H41.712ZM88.8204 12.2293C89.5939 11.3388 90.0115 10.1517 90.0115 8.90508C90.0115 5.99641 87.6292 3.62198 84.7107 3.62198H80.6014V21.9645H84.7701C87.9266 21.9645 90.4876 19.4119 90.4876 16.2658C90.4876 14.6631 89.8921 13.2384 88.8204 12.2293ZM84.532 7.18362C85.4851 7.18362 86.2594 7.95531 86.2594 8.90508C86.2594 9.8549 85.4851 10.6265 84.532 10.6265H84.4727V7.24298H84.532V7.18362ZM86.7355 16.2658C86.7355 17.4531 85.7824 18.3434 84.6514 18.3434H84.4727V14.1288H84.6514C85.7824 14.1288 86.7355 15.0786 86.7355 16.2658ZM17.4136 3.56262C21.1655 3.56262 24.1433 6.59002 24.1433 10.2704C24.1433 12.4074 23.1904 14.2476 21.642 15.4941L24.8579 21.9051H20.6296L18.1878 16.9188C17.89 16.9782 17.6518 16.9782 17.4136 16.9782H17.1158V21.9051H13.3043V3.56262H14.7336H17.4136ZM17.1158 7.18363V13.4165V13.4759H17.1753C18.9025 13.4759 20.3318 12.0512 20.3318 10.3297C20.3318 8.60828 18.9025 7.18363 17.1753 7.18363H17.1158ZM34.3868 17.1563C34.3868 18.106 33.6125 18.8777 32.6596 18.8777C31.7068 18.8777 30.873 18.106 30.873 17.1563V3.56262H27.0615V16.8595C27.0615 19.8868 29.5628 22.38 32.6002 22.38C35.6375 22.38 38.1387 19.8868 38.1387 16.8595V3.56262H34.3272V17.1563H34.3868ZM77.3934 24.5169H91.5V26.001H53.1466V24.5169H64.871L68.8096 6.41193H73.4549L77.3934 24.5169ZM73.5195 24.5169L73.0975 22.6768H69.1669L68.745 24.5169H73.5195ZM71.1918 13.4165L70.0007 19.0558H72.3829L71.1918 13.4165Z" fill="#919EAB"/>
</g>
<defs>
<clipPath id="clip0_4132_8419">
<rect width="91" height="26" fill="white" transform="translate(0.5 0.000976562)"/>
</clipPath>
</defs>
</svg>

<svg xmlns="http://www.w3.org/2000/svg" width="92" height="26" fill="none"><g clip-path="url(#a)"><path fill="#919EAB" fill-rule="evenodd" d="M91.5.001H53.147v1.484h1.31v17.57h8.695v-3.56h-4.884V1.484H91.5V.001ZM.5 3.563v3.62h2.8v14.722h3.81V7.184h2.8V3.563H.5Zm41.212 0v18.342h8.695v-3.562h-4.883v-3.799h3.87v-3.561h-3.87v-3.8h4.883v-3.62h-8.695Zm47.108 8.666c.774-.89 1.192-2.077 1.192-3.324 0-2.909-2.383-5.283-5.301-5.283H80.6v18.343h4.17c3.156 0 5.717-2.553 5.717-5.7 0-1.602-.596-3.027-1.668-4.036Zm-4.288-5.045c.953 0 1.727.771 1.727 1.721 0 .95-.774 1.722-1.727 1.722h-.06V7.242h.06v-.06Zm2.204 9.082a2.068 2.068 0 0 1-2.085 2.077h-.178V14.13h.178c1.131 0 2.085.95 2.085 2.137ZM17.413 3.563a6.712 6.712 0 0 1 6.73 6.707 6.61 6.61 0 0 1-2.502 5.224l3.216 6.411H20.63l-2.442-4.986c-.298.06-.536.06-.774.06h-.298v4.926h-3.812V3.563h4.11Zm-.298 3.62V13.477h.06c1.727 0 3.156-1.425 3.156-3.146 0-1.722-1.43-3.146-3.157-3.146h-.06Zm17.27 9.973c0 .95-.774 1.722-1.726 1.722-.953 0-1.787-.772-1.787-1.722V3.563h-3.812v13.296c0 3.028 2.502 5.521 5.54 5.521 3.037 0 5.538-2.493 5.538-5.52V3.563h-3.812v13.593h.06Zm43.007 7.36H91.5v1.485H53.147v-1.484H64.87L68.81 6.412h4.645l3.938 18.105Zm-3.874 0-.422-1.84h-3.93l-.422 1.84h4.774Zm-2.327-11.1L70 19.056h2.382l-1.191-5.64Z" clip-rule="evenodd"/></g><defs><clipPath id="a"><path fill="#fff" d="M.5.001h91v26H.5z"/></clipPath></defs></svg>
